X: 34780
T: Road To Ruin, The
R: reel
M: 4/4
K: Gmajor
AE~E2 ABcA|BG~G2 DGBG|AE~E2 ABcA|BedB gedB|
AE~E2 ABcA|BG~G2 DGBG|A3A B/c/d ed|gedB BAA2:|
e2^ce aece|gedB GABd|e2^ce aece|gedB BAA2|
[1 e2^ce aece|gedB GABd|e3^c d2 d/e/f|gedB BAA2:|
[2 a2ab agef|gedB GABd|e3^c d2 d/e/f|gedB BAA2||

